src/animals-nature/plant-other/1F343.svg

<svg id="emoji" viewBox="0 0 72 72" xmlns="http://www.w3.org/2000/svg">
  <g id="grid">
    <path fill="#b3b3b3" d="M68,4V68H4V4H68m4-4H0V72H72V0Z"/>
    <path fill="none" stroke="#00a5ff" stroke-miterlimit="10" stroke-width="0.1" d="M12.923,10.9583H59.0769A1.9231,1.9231,0,0,1,61,12.8814V59.0352a1.9231,1.9231,0,0,1-1.9231,1.9231H12.9231A1.9231,1.9231,0,0,1,11,59.0352V12.8813A1.923,1.923,0,0,1,12.923,10.9583Z"/>
    <rect x="16" y="4" rx="2.2537" width="40" height="64" fill="none" stroke="#00a5ff" stroke-miterlimit="10" stroke-width="0.1"/>
    <rect x="16" y="4" rx="2.2537" width="40" height="64" transform="translate(72) rotate(90)" fill="none" stroke="#00a5ff" stroke-miterlimit="10" stroke-width="0.1"/>
    <circle cx="36" cy="36" r="29" fill="none" stroke="#00a5ff" stroke-miterlimit="10" stroke-width="0.1"/>
  </g>
  <g id="color">
    <path fill="#b1cc33" d="M28.919,27.91c8.1523-6.8285,20.7734-4.925,20.7734-4.925S49.0929,35.8214,41.0678,42.44s-20.7734,4.9249-20.7734,4.9249S20.7668,34.738,28.919,27.91Z"/>
  </g>
  <g id="line">
    <path fill="none" stroke="#000" stroke-linecap="round" stroke-linejoin="round" stroke-width="2" d="M29.63,27.91c8.1523-6.8285,20.7734-4.925,20.7734-4.925S49.804,35.8214,41.7789,42.44s-20.7734,4.9249-20.7734,4.9249S21.4778,34.738,29.63,27.91Z"/>
    <path fill="none" stroke="#000" stroke-linecap="round" stroke-linejoin="round" stroke-width="2" d="M54.0855,38.5427a10.2458,10.2458,0,0,1-1.58,4.7407,11.317,11.317,0,0,1-7.901,4.7406"/>
    <path fill="none" stroke="#000" stroke-linecap="round" stroke-linejoin="round" stroke-width="2" d="M58.8261,41.7031a10.2451,10.2451,0,0,1-1.58,4.7407,11.3173,11.3173,0,0,1-7.9011,4.7406"/>
    <path fill="none" stroke="#000" stroke-linecap="round" stroke-linejoin="round" stroke-width="2" d="M17.7406,30.6417a10.2455,10.2455,0,0,1,1.58-4.7407A11.3173,11.3173,0,0,1,27.2219,21.16"/>
    <path fill="none" stroke="#000" stroke-linecap="round" stroke-linejoin="round" stroke-width="2" d="M13,27.4813a10.2451,10.2451,0,0,1,1.58-4.7407A11.3173,11.3173,0,0,1,22.4813,18"/>
    <line x1="18" x2="20.901" y1="50" y2="47.024" fill="none" stroke="#000" stroke-linecap="round" stroke-linejoin="round" stroke-width="2"/>
  </g>
</svg>

<svg viewBox="0 0 72 72" xmlns="http://www.w3.org/2000/svg"><path fill="#b3b3b3" d="M68 4v64H4V4h64m4-4H0v72h72V0z"/><path fill="none" stroke="#00a5ff" stroke-miterlimit="10" stroke-width=".1" d="M12.923 10.958h46.154A1.923 1.923 0 0161 12.881v46.154a1.923 1.923 0 01-1.923 1.923H12.923A1.923 1.923 0 0111 59.035V12.881a1.923 1.923 0 011.923-1.923z"/><rect x="16" y="4" rx="2.254" width="40" height="64" fill="none" stroke="#00a5ff" stroke-miterlimit="10" stroke-width=".1"/><rect x="16" y="4" rx="2.254" width="40" height="64" transform="rotate(90 36 36)" fill="none" stroke="#00a5ff" stroke-miterlimit="10" stroke-width=".1"/><circle cx="36" cy="36" r="29" fill="none" stroke="#00a5ff" stroke-miterlimit="10" stroke-width=".1"/><path d="M29.63 27.91c8.152-6.829 20.773-4.925 20.773-4.925s-.599 12.836-8.624 19.455-20.774 4.925-20.774 4.925.473-12.627 8.625-19.455zm24.456 10.633a10.246 10.246 0 01-1.58 4.74 11.317 11.317 0 01-7.901 4.741m14.221-6.321a10.245 10.245 0 01-1.58 4.74 11.317 11.317 0 01-7.901 4.741M17.74 30.642a10.245 10.245 0 011.58-4.741 11.317 11.317 0 017.902-4.741M13 27.481a10.245 10.245 0 011.58-4.74A11.317 11.317 0 0122.481 18M18 50l2.901-2.976" stroke-linecap="round" stroke-miterlimit="10" stroke-width="6" stroke="#fff" fill="none" stroke-linejoin="round"/><path fill="#b1cc33" d="M28.919 27.91c8.152-6.829 20.773-4.925 20.773-4.925s-.6 12.836-8.624 19.455-20.774 4.925-20.774 4.925.473-12.627 8.625-19.455z"/><path d="M29.63 27.91c8.152-6.829 20.773-4.925 20.773-4.925s-.599 12.836-8.624 19.455-20.774 4.925-20.774 4.925.473-12.627 8.625-19.455zm24.456 10.633a10.246 10.246 0 01-1.58 4.74 11.317 11.317 0 01-7.901 4.741m14.221-6.321a10.245 10.245 0 01-1.58 4.74 11.317 11.317 0 01-7.901 4.741M17.74 30.642a10.245 10.245 0 011.58-4.741 11.317 11.317 0 017.902-4.741M13 27.481a10.245 10.245 0 011.58-4.74A11.317 11.317 0 0122.481 18M18 50l2.901-2.976" fill="none" stroke="#000" stroke-linecap="round" stroke-linejoin="round" stroke-width="2"/></svg>
